static/assets/img/icons/theme/text/strikethrough.svg

<svg height="24" viewBox="0 0 24 24" width="24" xmlns="http://www.w3.org/2000/svg"><g fill="none" fill-rule="evenodd"><path d="m0 0h24v24h-24z" opacity="0"/><g fill="#000"><rect height="2" opacity=".3" rx="1" width="17" x="4" y="11"/><path d="m12.06 19.16c-2.06 0-3.78-1-4.62-2.2l1.38-1.2c.68.88 1.84 1.66 3.22 1.66 1.64 0 2.68-.76 2.68-2 0-1.3-.8-1.98-2.32-2.64l-1.3-.56c-2.16-.92-3.1-2.24-3.1-4.02 0-2.16 2.04-3.56 4.14-3.56 1.66 0 3.02.66 3.98 1.82l-1.28 1.28c-.74-.88-1.52-1.36-2.76-1.36-1.2 0-2.26.68-2.26 1.86 0 1.04.6 1.74 2.1 2.4l1.3.56c1.92.84 3.34 2.02 3.34 4.02 0 2.32-1.72 3.94-4.5 3.94z"/></g></g></svg>

<svg width="24px" height="24px" viewBox="0 0 24 24" version="1.1" xmlns="http://www.w3.org/2000/svg" xmlns:xlink="http://www.w3.org/1999/xlink">
    <title>Icon For Strikethrough</title>
    <g stroke="none" stroke-width="1" fill="none" fill-rule="evenodd">
        <rect opacity="0" x="0" y="0" width="24" height="24"></rect>
        <rect fill="#000000" opacity="0.3" x="4" y="11" width="17" height="2" rx="1"></rect>
        <path d="M12.06,19.16 C10,19.16 8.28,18.16 7.44,16.96 L8.82,15.76 C9.5,16.64 10.66,17.42 12.04,17.42 C13.68,17.42 14.72,16.66 14.72,15.42 C14.72,14.12 13.92,13.44 12.4,12.78 L11.1,12.22 C8.94,11.3 8,9.98 8,8.2 C8,6.04 10.04,4.64 12.14,4.64 C13.8,4.64 15.16,5.3 16.12,6.46 L14.84,7.74 C14.1,6.86 13.32,6.38 12.08,6.38 C10.88,6.38 9.82,7.06 9.82,8.24 C9.82,9.28 10.42,9.98 11.92,10.64 L13.22,11.2 C15.14,12.04 16.56,13.22 16.56,15.22 C16.56,17.54 14.84,19.16 12.06,19.16 Z" fill="#000000"></path>
    </g>
</svg>
